TGraph/plc.svg

<svg xmlns="http://www.w3.org/2000/svg" viewBox="0 0 1200 800" preserveAspectRatio="none" width="1200" height="800">
 <path d="M0,0H1200V800H0Z" style="fill: white;"></path>
 <g>
  <g transform="translate(120,80)">
   <path d="M0,0H960V640H0Z" style="fill: white; stroke: black; stroke-width: 1;"></path>
   <svg x="0" y="0" overflow="hidden" width="960" height="640" viewBox="0 0 960 640">
    <g>
     <path d="M80,586.67C92,570.67,213.33,320,280,320S420,606.67,480,586.67S656,218.67,680,186.67S856.92,68.72,880,53.33" style="stroke: #630005; stroke-width: 3; fill: none;"></path>
     <path d="M76,583l8,8m0,-8l-8,8m0,-4h8m-4,-4v8M276,316l8,8m0,-8l-8,8m0,-4h8m-4,-4v8M476,583l8,8m0,-8l-8,8m0,-4h8m-4,-4v8M676,183l8,8m0,-8l-8,8m0,-4h8m-4,-4v8M876,49l8,8m0,-8l-8,8m0,-4h8m-4,-4v8" style="stroke: red; fill: none;"></path>
    </g>
    <g>
     <path d="M80,560C92,544,213.33,293.33,280,293.33S420,580,480,560S656,192,680,160S856.92,42.05,880,26.67" style="stroke: #9a0807; stroke-width: 3; fill: none;"></path>
     <path d="M76,560a4,4,0,1,0,8,0a4,4,0,1,0,-8,0zM276,293a4,4,0,1,0,8,0a4,4,0,1,0,-8,0zM476,560a4,4,0,1,0,8,0a4,4,0,1,0,-8,0zM676,160a4,4,0,1,0,8,0a4,4,0,1,0,-8,0zM876,27a4,4,0,1,0,8,0a4,4,0,1,0,-8,0z" style="stroke: black; fill: none;"></path>
    </g>
    <g>
     <path d="M80,533.33C92,517.33,213.33,266.67,280,266.67S420,553.33,480,533.33S656,165.33,680,133.33S856.92,15.38,880,0" style="stroke: #c73909; stroke-width: 3; fill: none;"></path>
     <path d="M76,529v8h8v-8zM276,263v8h8v-8zM476,529v8h8v-8zM676,129v8h8v-8zM876,-4v8h8v-8z" style="stroke: black; fill: none;"></path>
    </g>
    <g>
     <path d="M80,506.67C92,490.67,213.33,240,280,240S420,526.67,480,506.67S656,138.67,680,106.67S856.92,-11.28,880,-26.67" style="stroke: #c97511; stroke-width: 3; fill: none;"></path>
     <path d="M76,503l8,8m0,-8l-8,8m0,-4h8m-4,-4v8M276,236l8,8m0,-8l-8,8m0,-4h8m-4,-4v8M476,503l8,8m0,-8l-8,8m0,-4h8m-4,-4v8M676,103l8,8m0,-8l-8,8m0,-4h8m-4,-4v8" style="stroke: blue; fill: none;"></path>
    </g>
    <g>
     <path d="M80,480C92,464,213.33,213.33,280,213.33S420,500,480,480S656,112,680,80S856.92,-37.95,880,-53.33" style="stroke: #e3aa18; stroke-width: 3; fill: none;"></path>
     <path d="M76,476v8h8v-8zM276,209v8h8v-8zM476,476v8h8v-8zM676,76v8h8v-8z" style="stroke: black; fill: black;"></path>
    </g>
   </svg>
   <g>
    <g transform="translate(0,640)">
     <path d="M0,0h960M0,-12v12m20,-12v12m20,-12v12m20,-12v12m20,-24v24m20,-12v12m20,-12v12m20,-12v12m20,-12v12m20,-24v24m20,-12v12m20,-12v12m20,-12v12m20,-12v12m20,-24v24m20,-12v12m20,-12v12m20,-12v12m20,-12v12m20,-24v24m20,-12v12m20,-12v12m20,-12v12m20,-12v12m20,-24v24m20,-12v12m20,-12v12m20,-12v12m20,-12v12m20,-24v24m20,-12v12m20,-12v12m20,-12v12m20,-12v12m20,-24v24m20,-12v12m20,-12v12m20,-12v12m20,-12v12m20,-24v24m20,-12v12m20,-12v12m20,-12v12m20,-12v12m20,-24v24m20,-12v12m20,-12v12m20,-12v12m20,-12v12" style="stroke: black; stroke-width: 1;"></path>
     <g font-family="Arial" font-size="28" space="preserve" fill="black" text-anchor="middle">
      <text dy=".8em" transform="translate(80,6)">
       1
      </text>
      <text dy=".8em" transform="translate(180,6)">
       1.5
      </text>
      <text dy=".8em" transform="translate(280,6)">
       2
      </text>
      <text dy=".8em" transform="translate(380,6)">
       2.5
      </text>
      <text dy=".8em" transform="translate(480,6)">
       3
      </text>
      <text dy=".8em" transform="translate(580,6)">
       3.5
      </text>
      <text dy=".8em" transform="translate(680,6)">
       4
      </text>
      <text dy=".8em" transform="translate(780,6)">
       4.5
      </text>
      <text dy=".8em" transform="translate(880,6)">
       5
      </text>
     </g>
    </g>
    <g>
     <path d="M0,0v640M18,640h-18m18,-27h-18m36,-26h-36m18,-27h-18m18,-27h-18m18,-26h-18m18,-27h-18m36,-27h-36m18,-26h-18m18,-27h-18m18,-27h-18m18,-26h-18m36,-27h-36m18,-27h-18m18,-26h-18m18,-27h-18m18,-27h-18m36,-26h-36m18,-27h-18m18,-27h-18m18,-26h-18m18,-27h-18m36,-27h-36m18,-26h-18m18,-27h-18" style="stroke: black; stroke-width: 1;"></path>
     <g font-family="Arial" font-size="28" space="preserve" fill="black" text-anchor="end">
      <text dy=".4em" transform="translate(-4,587)">
       1
      </text>
      <text dy=".4em" transform="translate(-4,453)">
       1.5
      </text>
      <text dy=".4em" transform="translate(-4,320)">
       2
      </text>
      <text dy=".4em" transform="translate(-4,187)">
       2.5
      </text>
      <text dy=".4em" transform="translate(-4,53)">
       3
      </text>
     </g>
    </g>
   </g>
  </g>
  <g transform="translate(120,4)" font-family="Arial" font-size="40" space="preserve">
   <text fill="black" text-anchor="middle" dy=".8em" transform="translate(480)">
    Graph with a red star
   </text>
  </g>
  <g transform="translate(600,96)" font-family="Arial" font-size="16" space="preserve">
   <path d="M0,0H456V168H0Z" style="fill: white; stroke: black; stroke-width: 1;"></path>
   <path d="M14,8v25h86v-25z" style="fill: #630005;"></path>
   <path d="M14,21H100" style="stroke: #630005; stroke-width: 3;"></path>
   <path d="M53,17l8,8m0,-8l-8,8m0,-4h8m-4,-4v8" style="stroke: red; fill: none;"></path>
   <text fill="black" text-anchor="start" dy=".4em" transform="translate(114,21)">
    Graph with a red star
   </text>
   <path d="M14,40v25h86v-25z" style="fill: #9a0807;"></path>
   <path d="M14,52H100" style="stroke: #9a0807; stroke-width: 3;"></path>
   <path d="M53,52a4,4,0,1,0,8,0a4,4,0,1,0,-8,0z" style="stroke: black; fill: none;"></path>
   <text fill="black" text-anchor="start" dy=".4em" transform="translate(114,53)">
    Graph with a circular marker
   </text>
   <path d="M14,71v25h86v-25z" style="fill: #c73909;"></path>
   <path d="M14,84H100" style="stroke: #c73909; stroke-width: 3;"></path>
   <path d="M53,80v8h8v-8z" style="stroke: black; fill: none;"></path>
   <text fill="black" text-anchor="start" dy=".4em" transform="translate(114,84)">
    Graph with an open square marker
   </text>
   <path d="M14,103v25h86v-25z" style="fill: #c97511;"></path>
   <path d="M14,116H100" style="stroke: #c97511; stroke-width: 3;"></path>
   <path d="M53,112l8,8m0,-8l-8,8m0,-4h8m-4,-4v8" style="stroke: blue; fill: none;"></path>
   <text fill="black" text-anchor="start" dy=".4em" transform="translate(114,116)">
    Graph with a blue star
   </text>
   <path d="M14,134v25h86v-25z" style="fill: #e3aa18;"></path>
   <path d="M14,147H100" style="stroke: #e3aa18; stroke-width: 3;"></path>
   <path d="M53,143v8h8v-8z" style="stroke: black; fill: black;"></path>
   <text fill="black" text-anchor="start" dy=".4em" transform="translate(114,147)">
    Graph with a full square marker
   </text>
  </g>
 </g>
</svg>

<svg xmlns="http://www.w3.org/2000/svg" viewBox="0 0 1200 800" preserveAspectRatio="none" width="1200" height="800">
 <path d="M0,0H1200V800H0Z" style="fill: white;"></path>
 <g>
  <g transform="translate(120,80)">
   <path d="M0,0H960V640H0Z" style="fill: white; stroke: black; stroke-width: 1;"></path>
   <svg x="0" y="0" overflow="hidden" width="960" height="640" viewBox="0 0 960 640">
    <g>
     <path d="M80,586.67C92,570.67,213.33,320,280,320S420,606.67,480,586.67S656,218.67,680,186.67S856.92,68.72,880,53.33" style="stroke: #630005; stroke-width: 3; fill: none;"></path>
     <path d="M76,583l8,8m0,-8l-8,8m0,-4h8m-4,-4v8M276,316l8,8m0,-8l-8,8m0,-4h8m-4,-4v8M476,583l8,8m0,-8l-8,8m0,-4h8m-4,-4v8M676,183l8,8m0,-8l-8,8m0,-4h8m-4,-4v8M876,49l8,8m0,-8l-8,8m0,-4h8m-4,-4v8" style="stroke: red; fill: none;"></path>
    </g>
    <g>
     <path d="M80,560C92,544,213.33,293.33,280,293.33S420,580,480,560S656,192,680,160S856.92,42.05,880,26.67" style="stroke: #9a0807; stroke-width: 3; fill: none;"></path>
     <path d="M76,560a4,4,0,1,0,8,0a4,4,0,1,0,-8,0zM276,293a4,4,0,1,0,8,0a4,4,0,1,0,-8,0zM476,560a4,4,0,1,0,8,0a4,4,0,1,0,-8,0zM676,160a4,4,0,1,0,8,0a4,4,0,1,0,-8,0zM876,27a4,4,0,1,0,8,0a4,4,0,1,0,-8,0z" style="stroke: black; fill: none;"></path>
    </g>
    <g>
     <path d="M80,533.33C92,517.33,213.33,266.67,280,266.67S420,553.33,480,533.33S656,165.33,680,133.33S856.92,15.38,880,0" style="stroke: #c73909; stroke-width: 3; fill: none;"></path>
     <path d="M76,529v8h8v-8zM276,263v8h8v-8zM476,529v8h8v-8zM676,129v8h8v-8zM876,-4v8h8v-8z" style="stroke: black; fill: none;"></path>
    </g>
    <g>
     <path d="M80,506.67C92,490.67,213.33,240,280,240S420,526.67,480,506.67S656,138.67,680,106.67S856.92,-11.28,880,-26.67" style="stroke: #c97511; stroke-width: 3; fill: none;"></path>
     <path d="M76,503l8,8m0,-8l-8,8m0,-4h8m-4,-4v8M276,236l8,8m0,-8l-8,8m0,-4h8m-4,-4v8M476,503l8,8m0,-8l-8,8m0,-4h8m-4,-4v8M676,103l8,8m0,-8l-8,8m0,-4h8m-4,-4v8" style="stroke: blue; fill: none;"></path>
    </g>
    <g>
     <path d="M80,480C92,464,213.33,213.33,280,213.33S420,500,480,480S656,112,680,80S856.92,-37.95,880,-53.33" style="stroke: #e3aa18; stroke-width: 3; fill: none;"></path>
     <path d="M76,476v8h8v-8zM276,209v8h8v-8zM476,476v8h8v-8zM676,76v8h8v-8z" style="stroke: black; fill: black;"></path>
    </g>
   </svg>
   <g>
    <g transform="translate(0,640)">
     <path d="M0,0h960M0,-12V0M20,-12V0M40,-12V0M60,-12V0M80,-24V0M100,-12V0M120,-12V0M140,-12V0M160,-12V0M180,-24V0M200,-12V0M220,-12V0M240,-12V0M260,-12V0M280,-24V0M300,-12V0M320,-12V0M340,-12V0M360,-12V0M380,-24V0M400,-12V0M420,-12V0M440,-12V0M460,-12V0M480,-24V0M500,-12V0M520,-12V0M540,-12V0M560,-12V0M580,-24V0M600,-12V0M620,-12V0M640,-12V0M660,-12V0M680,-24V0M700,-12V0M720,-12V0M740,-12V0M760,-12V0M780,-24V0M800,-12V0M820,-12V0M840,-12V0M860,-12V0M880,-24V0M900,-12V0M920,-12V0M940,-12V0M960,-12V0" style="stroke: black; stroke-width: 1;"></path>
     <g font-family="Arial" font-size="28" space="preserve" fill="black" text-anchor="middle">
      <text dy=".8em" transform="translate(80,6)">
       1
      </text>
      <text dy=".8em" transform="translate(180,6)">
       1.5
      </text>
      <text dy=".8em" transform="translate(280,6)">
       2
      </text>
      <text dy=".8em" transform="translate(380,6)">
       2.5
      </text>
      <text dy=".8em" transform="translate(480,6)">
       3
      </text>
      <text dy=".8em" transform="translate(580,6)">
       3.5
      </text>
      <text dy=".8em" transform="translate(680,6)">
       4
      </text>
      <text dy=".8em" transform="translate(780,6)">
       4.5
      </text>
      <text dy=".8em" transform="translate(880,6)">
       5
      </text>
     </g>
    </g>
    <g>
     <path d="M0,0v640M18,640H0M18,613H0M36,587H0M18,560H0M18,533H0M18,507H0M18,480H0M36,453H0M18,427H0M18,400H0M18,373H0M18,347H0M36,320H0M18,293H0M18,267H0M18,240H0M18,213H0M36,187H0M18,160H0M18,133H0M18,107H0M18,80H0M36,53H0M18,27H0M18,0H0" style="stroke: black; stroke-width: 1;"></path>
     <g font-family="Arial" font-size="28" space="preserve" fill="black" text-anchor="end">
      <text dy=".4em" transform="translate(-4,587)">
       1
      </text>
      <text dy=".4em" transform="translate(-4,453)">
       1.5
      </text>
      <text dy=".4em" transform="translate(-4,320)">
       2
      </text>
      <text dy=".4em" transform="translate(-4,187)">
       2.5
      </text>
      <text dy=".4em" transform="translate(-4,53)">
       3
      </text>
     </g>
    </g>
   </g>
  </g>
  <g transform="translate(120,4)" font-family="Arial" font-size="40" space="preserve">
   <text fill="black" text-anchor="middle" dy=".8em" transform="translate(480)">
    Graph with a red star
   </text>
  </g>
  <g transform="translate(600,96)" font-family="Arial" font-size="16" space="preserve">
   <path d="M0,0H456V168H0Z" style="fill: white; stroke: black; stroke-width: 1;"></path>
   <path d="M14,8v25h86v-25z" style="fill: #630005;"></path>
   <path d="M14,21H100" style="stroke: #630005; stroke-width: 3;"></path>
   <path d="M53,17l8,8m0,-8l-8,8m0,-4h8m-4,-4v8" style="stroke: red; fill: none;"></path>
   <text fill="black" text-anchor="start" dy=".4em" transform="translate(114,21)">
    Graph with a red star
   </text>
   <path d="M14,40v25h86v-25z" style="fill: #9a0807;"></path>
   <path d="M14,52H100" style="stroke: #9a0807; stroke-width: 3;"></path>
   <path d="M53,52a4,4,0,1,0,8,0a4,4,0,1,0,-8,0z" style="stroke: black; fill: none;"></path>
   <text fill="black" text-anchor="start" dy=".4em" transform="translate(114,53)">
    Graph with a circular marker
   </text>
   <path d="M14,71v25h86v-25z" style="fill: #c73909;"></path>
   <path d="M14,84H100" style="stroke: #c73909; stroke-width: 3;"></path>
   <path d="M53,80v8h8v-8z" style="stroke: black; fill: none;"></path>
   <text fill="black" text-anchor="start" dy=".4em" transform="translate(114,84)">
    Graph with an open square marker
   </text>
   <path d="M14,103v25h86v-25z" style="fill: #c97511;"></path>
   <path d="M14,116H100" style="stroke: #c97511; stroke-width: 3;"></path>
   <path d="M53,112l8,8m0,-8l-8,8m0,-4h8m-4,-4v8" style="stroke: blue; fill: none;"></path>
   <text fill="black" text-anchor="start" dy=".4em" transform="translate(114,116)">
    Graph with a blue star
   </text>
   <path d="M14,134v25h86v-25z" style="fill: #e3aa18;"></path>
   <path d="M14,147H100" style="stroke: #e3aa18; stroke-width: 3;"></path>
   <path d="M53,143v8h8v-8z" style="stroke: black; fill: black;"></path>
   <text fill="black" text-anchor="start" dy=".4em" transform="translate(114,147)">
    Graph with a full square marker
   </text>
  </g>
 </g>
</svg>
